vendor/shopware/storefront/Resources/app/storefront/dist/assets/icon/default/editor-code.svg

<svg xmlns="http://www.w3.org/2000/svg" width="12" height="12" viewBox="0 0 12 12">
  <path fill="#758CA3" fill-rule="evenodd" d="M2.20185043,6 L3.83205029,8.4452998 C4.13840275,8.90482849 4.01422888,9.52569784 3.5547002,9.83205029 C3.09517151,10.1384028 2.47430216,10.0142289 2.16794971,9.5547002 L0.167949706,6.5547002 C-0.0559832352,6.21880078 -0.0559832352,5.78119922 0.167949706,5.4452998 L2.16794971,2.4452998 C2.47430216,1.98577112 3.09517151,1.86159725 3.5547002,2.16794971 C4.01422888,2.47430216 4.13840275,3.09517151 3.83205029,3.5547002 L2.20185043,6 Z M8.16805598,3.5547002 C7.86170352,3.09517151 7.98587739,2.47430216 8.44540608,2.16794971 C8.90493477,1.86159725 9.52580411,1.98577112 9.83215657,2.4452998 L11.8321566,5.4452998 C12.0560895,5.78119922 12.0560895,6.21880078 11.8321566,6.5547002 L9.83215657,9.5547002 C9.52580411,10.0142289 8.90493477,10.1384028 8.44540608,9.83205029 C7.98587739,9.52569784 7.86170352,8.90482849 8.16805598,8.4452998 L9.79825585,6 L8.16805598,3.5547002 Z M5.50772212,1.87596527 C5.57622462,1.32794533 6.0760148,0.939219631 6.62403473,1.00772212 C7.17205467,1.07622462 7.56078037,1.5760148 7.49227788,2.12403473 L6.49227788,10.1240347 C6.42377538,10.6720547 5.9239852,11.0607804 5.37596527,10.9922779 C4.82794533,10.9237754 4.43921963,10.4239852 4.50772212,9.87596527 L5.50772212,1.87596527 Z"/>
</svg>

<svg xmlns="http://www.w3.org/2000/svg" width="12" height="12" viewBox="0 0 12 12"><path fill="#758CA3" fill-rule="evenodd" d="M2.2019 6 3.832 8.4453c.3063.4595.1821 1.0804-.2774 1.3868-.4595.3063-1.0804.1821-1.3868-.2774l-2-3a1 1 0 0 1 0-1.1094l2-3c.3064-.4595.9273-.5837 1.3868-.2774.4595.3064.5837.9273.2774 1.3868L2.2019 6zM8.168 3.5547c-.3064-.4595-.1822-1.0804.2773-1.3868.4595-.3063 1.0804-.1821 1.3868.2774l2 3a1 1 0 0 1 0 1.1094l-2 3c-.3064.4595-.9273.5837-1.3868.2774-.4595-.3064-.5837-.9273-.2773-1.3868L9.7983 6 8.168 3.5547zM5.5077 1.876c.0685-.548.5683-.9368 1.1163-.8683s.9368.5683.8683 1.1163l-1 8c-.0685.548-.5683.9368-1.1163.8683s-.9368-.5683-.8683-1.1163l1-8z"/></svg>
